!!!OTL: KEIN FEUER, KEINE KOHLE KANN BRENNEN SO HEISS
!!!ARE: Europa, Mitteleuropa, Deutschland, Sachsen
!!!SCT: Z0120
!!!YEM: Copyright 1995, estate of Helmut Schaffrath.
**kern
*ICvox
*Ivox
*M3/4
*k[b-]
*F:
{8c
=1
4f
4f
8g
8g
=2
4a
4a
8r}
{8cc
=3
8dd
8cc
4b-
4a
=4
2g
8r}
{8cc
=5
8dd
8cc
8b-
8cc
8dd
8ee
=6
16ff
16ee
16ff
16dd
4cc}
{8dd
16cc
16b-
=7
4a
8a
8a
4g
=8
4f
8f
8a
8g
8b-
=9
4a
8a
8cc
8b-
8dd
=10
4cc
8ff
8r}
{8dd
16cc
16b-
=11
4a
8a
8a
4g
=12
2f
8r}
==
!!!AGN: Erzaehlung, lustige Romanze
!!!ONB: ESAC (Essen Associative Code) Database: ZUCCAL
!!!AMT: simple triple
!!!AIN: vox
!!!EED: Helmut Schaffrath
!!!EEV: 1.0
*-
